X: 8
T: Dinkey's
C: Francie Dearg O'Byrne
Z: Erik-Fiddler
S: https://thesession.org/tunes/24#setting48731
R: reel
M: 4/4
L: 1/8
K: Amix
|:ed|c/d/c B/c/B ABcd|egfg edBd|gB(3B/B/B/B gBaB|gB(3B/B/B/B gfed|
c/d/c B/c/B ABcd|egfg edBd|~g(3g/f/g/g d efed|1cdBc Af:|2cdBc Aefg||
aA (3A/A/A/A aAbA|aA (3A/A/A/A agef|gB(3B/B/B/B gBaB|gB(3B/B/B/B gfeg|
aA (3A/A/A/A aAbA|aA (3A/A/A/A agef|~g(3g/f/g/g d efed|cdBc Aefg|
aAbA aAbA|aAbA agef|gBaB gBaB|gBaB gfeg|
aA (3A/A/A/A gA (3A/A/A/A|fA (3A/A/A/A [e2A2] ef|~g(3g/f/g/g d efed|cdBc A2||

%-------------------- TUNE SEPARATOR --------------------%

